X: 6838
T: Charlie Hunter
R: jig
M: 6/8
K: Dmajor
|:DFA DGB|Adf a2g|fef Bcd|ecA GFE|
DFA DGB|Adf a2g|faf gec|edc d3:|
|:afd dcd|BGF G2F|EGB e2d|cec A2g|
fdA DFA|GBd g2e|faf gec|edc d3:|

